client/src/assets/images/icon-blue-ball.svg

<svg fill="none" height="32" viewBox="0 0 30 32" width="30" xmlns="http://www.w3.org/2000/svg"><g fill="#06b9ff"><path d="m15 32c8.2843 0 15-7.1634 15-16 0-8.83656-6.7157-16-15-16-8.28427 0-15 7.16344-15 16 0 8.8366 6.71573 16 15 16z"/><path d="m15.0008 25.5996c4.9704 0 8.9997-4.2979 8.9997-9.5996s-4.0293-9.59961-8.9997-9.59961c-4.9703 0-8.99958 4.29791-8.99958 9.59961s4.02928 9.5996 8.99958 9.5996z"/></g></svg>

<svg width="30" height="32" viewBox="0 0 30 32" fill="none" xmlns="http://www.w3.org/2000/svg">
<path d="M15 32C23.2843 32 30 24.8366 30 16C30 7.16344 23.2843 0 15 0C6.71573 0 0 7.16344 0 16C0 24.8366 6.71573 32 15 32Z" fill="#06B9FF"/>
<path d="M15.0008 25.5996C19.9712 25.5996 24.0005 21.3017 24.0005 16C24.0005 10.6983 19.9712 6.40039 15.0008 6.40039C10.0305 6.40039 6.00122 10.6983 6.00122 16C6.00122 21.3017 10.0305 25.5996 15.0008 25.5996Z" fill="#06B9FF"/>
</svg>
